src/images/svg/jump-indices/jump-indices-high-leverage.svg

<svg width="84" height="84" viewBox="0 0 84 84" fill="none" xmlns="http://www.w3.org/2000/svg">
<rect opacity="0.01" x="2" y="2" width="80" height="80" stroke="#979797" stroke-width="2.5"/>
<path fill-rule="evenodd" clip-rule="evenodd" d="M2 75.333C2 79.0146 4.985 81.9996 8.66667 81.9996H62C65.6817 81.9996 68.6667 79.0146 68.6667 75.333V71.4463H2V75.333Z" fill="#85ACAF"/>
<mask id="mask0" mask-type="alpha" maskUnits="userSpaceOnUse" x="2" y="25" width="67" height="44">
<path fill-rule="evenodd" clip-rule="evenodd" d="M2 25.0293H68.6665V68.701H2V25.0293Z" fill="white"/>
</mask>
<g mask="url(#mask0)">
<path fill-rule="evenodd" clip-rule="evenodd" d="M46.3847 52.4777V62.3893H41.003V52.4777H35.623L41.003 45.3143L43.6947 41.7327L46.3847 45.3143L51.7664 52.4777H46.3847ZM29.6676 53.416L26.9776 56.9977L24.286 53.4177L18.9043 46.2543H24.286V36.3427H29.6676V46.2543H35.0476L29.6676 53.416ZM62 25.0293H8.66667C4.985 25.0293 2 28.0143 2 31.696V68.701H68.6667V31.696C68.6667 28.0143 65.6817 25.0293 62 25.0293Z" fill="#85ACAF"/>
</g>
<g style="mix-blend-mode:multiply">
<path fill-rule="evenodd" clip-rule="evenodd" d="M59.5 2C47.0744 2 37 12.0725 37 24.5C37 36.9256 47.0744 47 59.5 47C71.9256 47 82 36.9256 82 24.5C82 12.0725 71.9256 2 59.5 2Z" fill="#FF444F"/>
</g>
<path fill-rule="evenodd" clip-rule="evenodd" d="M55.5448 17.5231C55.5448 15.8541 54.1921 14.5 52.5231 14.5C50.8527 14.5 49.5 15.8541 49.5 17.5231C49.5 19.1935 50.8527 20.5462 52.5231 20.5462C54.1921 20.5462 55.5448 19.1935 55.5448 17.5231ZM55.9397 34.4341H51.541L64.227 14.5H68.6272L55.9397 34.4341ZM63.4551 31.4769C63.4551 29.808 64.8078 28.4539 66.4782 28.4539C68.1486 28.4539 69.5012 29.808 69.5012 31.4769C69.5012 33.1473 68.1486 34.5 66.4782 34.5C64.8078 34.5 63.4551 33.1473 63.4551 31.4769Z" fill="white"/>
</svg>

<svg width="84" height="84" fill="none" xmlns="http://www.w3.org/2000/svg"><path opacity=".01" stroke="#979797" stroke-width="2.5" d="M2 2h80v80H2z"/><path fill-rule="evenodd" clip-rule="evenodd" d="M2 75.333A6.667 6.667 0 0 0 8.667 82H62a6.667 6.667 0 0 0 6.667-6.667v-3.887H2v3.887z" fill="#85ACAF"/><mask id="a" mask-type="alpha" maskUnits="userSpaceOnUse" x="2" y="25" width="67" height="44"><path fill-rule="evenodd" clip-rule="evenodd" d="M2 25.03h66.666V68.7H2V25.029z" fill="#fff"/></mask><g mask="url(#a)"><path fill-rule="evenodd" clip-rule="evenodd" d="M46.385 52.478v9.911h-5.382v-9.911h-5.38l5.38-7.164 2.692-3.581 2.69 3.581 5.381 7.164h-5.381zm-16.717.938-2.69 3.582-2.692-3.58-5.382-7.164h5.382v-9.911h5.382v9.911h5.38l-5.38 7.162zM62 25.029H8.667A6.667 6.667 0 0 0 2 31.696v37.005h66.667V31.696A6.667 6.667 0 0 0 62 25.029z" fill="#85ACAF"/></g><path fill-rule="evenodd" clip-rule="evenodd" d="M59.5 2C47.074 2 37 12.072 37 24.5 37 36.926 47.074 47 59.5 47S82 36.926 82 24.5C82 12.072 71.926 2 59.5 2z" fill="#FF444F"/><path fill-rule="evenodd" clip-rule="evenodd" d="M55.545 17.523a3.023 3.023 0 1 0-6.046 0 3.023 3.023 0 0 0 6.046 0zm.395 16.911H51.54L64.227 14.5h4.4L55.94 34.434zm7.515-2.957a3.023 3.023 0 1 1 6.046 0 3.023 3.023 0 0 1-6.046 0z" fill="#fff"/></svg>
